X: 1
T:4/4 3/4
M:4/4
O:Denmark
Z:Transcribed from a recording by Andy Hornby
B:Rasmus Storm's Notebook
K:D
A2AB ABcA|d2de d2d2|e2ed efga\
|1 f2f2 f4:|2 f2f2 f2 |:fg |\
a2a2 a2ba|g2g2 g2fe|f2fe fgab|e2e2 e2fg|\
a2ag f2ba|gfed cBAG|FAde d2c2|1 d6 :|2 d8 ||
M:3/4
AG AB cA|dc de fd|ed ef ga |1 f6 :|2 f4 fg|:\
a2 a2 ba|gf g2fe|fg a2gf|e4 fg|\
a2a2 ba|gf e2 a2|gf ed ec|1 d4 :|2 d6 :|
